img/Ico/Calendar.svg

<svg width="22" height="22" viewBox="0 0 22 22" fill="none" xmlns="http://www.w3.org/2000/svg">
<path fill-rule="evenodd" clip-rule="evenodd" d="M7 1C7.55229 1 8 1.44772 8 2V3.00228C8.29723 2.99999 8.61798 3 8.96449 3H13.0355C13.382 3 13.7028 2.99999 14 3.00228V2C14 1.44772 14.4477 1 15 1C15.5523 1 16 1.44772 16 2V3.12459C16.3192 3.17902 16.621 3.25947 16.9134 3.3806C18.1386 3.88807 19.1119 4.86144 19.6194 6.08658C19.8305 6.59628 19.9181 7.13456 19.9596 7.74331C20 8.33531 20 9.06272 20 9.96448V13.6035C20 14.7056 20 15.5944 19.9403 16.3138C19.8788 17.0547 19.7487 17.7049 19.4371 18.3049C18.9627 19.2181 18.2181 19.9627 17.3049 20.4371C16.7049 20.7487 16.0547 20.8788 15.3138 20.9403C14.5944 21 13.7056 21 12.6035 21H9.3965C8.29444 21 7.40557 21 6.68616 20.9403C5.94535 20.8788 5.29513 20.7487 4.69513 20.4371C3.78191 19.9627 3.03731 19.2181 2.56293 18.3049C2.25126 17.7049 2.12125 17.0547 2.05972 16.3138C1.99998 15.5944 1.99999 14.7056 2 13.6035V9.96449C1.99999 9.06273 1.99999 8.33531 2.04038 7.74331C2.08191 7.13456 2.16948 6.59628 2.3806 6.08658C2.88807 4.86144 3.86144 3.88807 5.08658 3.3806C5.37901 3.25947 5.68085 3.17902 6 3.12459V2C6 1.44772 6.44772 1 7 1ZM6 5.17476C5.94693 5.19142 5.89798 5.20929 5.85195 5.22836C5.11687 5.53284 4.53284 6.11687 4.22836 6.85195C4.135 7.07733 4.07033 7.37254 4.03574 7.87945C4.01452 8.19046 4.0059 8.55351 4.00239 9H17.9976C17.9941 8.55351 17.9855 8.19046 17.9643 7.87945C17.9297 7.37254 17.865 7.07733 17.7716 6.85195C17.4672 6.11687 16.8831 5.53284 16.1481 5.22836C16.102 5.20929 16.0531 5.19142 16 5.17476V6C16 6.55228 15.5523 7 15 7C14.4477 7 14 6.55228 14 6V5.00239C13.7059 5.00009 13.3755 5 13 5H9C8.62448 5 8.29413 5.00009 8 5.00239V6C8 6.55228 7.55229 7 7 7C6.44772 7 6 6.55228 6 6V5.17476ZM18 11H4V13.56C4 14.7158 4.0008 15.5214 4.05286 16.1483C4.10393 16.7632 4.19909 17.116 4.33776 17.3829C4.62239 17.9309 5.06915 18.3776 5.61708 18.6622C5.88403 18.8009 6.23678 18.8961 6.85168 18.9471C7.47856 18.9992 8.28423 19 9.44 19H12.56C13.7158 19 14.5214 18.9992 15.1483 18.9471C15.7632 18.8961 16.116 18.8009 16.3829 18.6622C16.9309 18.3776 17.3776 17.9309 17.6622 17.3829C17.8009 17.116 17.8961 16.7632 17.9471 16.1483C17.9992 15.5214 18 14.7158 18 13.56V11ZM12 16C12 15.4477 12.4477 15 13 15H15C15.5523 15 16 15.4477 16 16C16 16.5523 15.5523 17 15 17H13C12.4477 17 12 16.5523 12 16Z" fill="black"/>
</svg>

<svg width="22" height="22" fill="none" xmlns="http://www.w3.org/2000/svg"><path fill-rule="evenodd" clip-rule="evenodd" d="M7 1a1 1 0 0 1 1 1v1.002C8.297 3 8.618 3 8.964 3h4.072c.346 0 .667 0 .964.002V2a1 1 0 1 1 2 0v1.125c.32.054.621.134.913.256a5 5 0 0 1 2.706 2.706c.212.51.3 1.048.34 1.656.041.592.041 1.32.041 2.221v3.64c0 1.102 0 1.99-.06 2.71-.061.74-.191 1.39-.503 1.99a5 5 0 0 1-2.132 2.133c-.6.312-1.25.442-1.991.503-.72.06-1.608.06-2.71.06H9.396c-1.103 0-1.991 0-2.71-.06-.742-.061-1.392-.191-1.992-.503a5 5 0 0 1-2.132-2.132c-.312-.6-.442-1.25-.503-1.991-.06-.72-.06-1.608-.06-2.71v-3.64c0-.901 0-1.629.04-2.22.042-.61.13-1.148.34-1.657A5 5 0 0 1 5.088 3.38c.292-.122.594-.202.913-.256V2a1 1 0 0 1 1-1zM6 5.175a1.772 1.772 0 0 0-.148.053 3 3 0 0 0-1.624 1.624c-.093.225-.158.52-.192 1.027-.021.311-.03.675-.034 1.121h13.996c-.004-.446-.013-.81-.034-1.12-.034-.507-.099-.803-.192-1.028a3 3 0 0 0-1.624-1.624A1.778 1.778 0 0 0 16 5.175V6a1 1 0 1 1-2 0v-.998C13.706 5 13.376 5 13 5H9c-.376 0-.706 0-1 .002V6a1 1 0 1 1-2 0v-.825zM18 11H4v2.56c0 1.156 0 1.961.053 2.588.05.615.146.968.285 1.235a3 3 0 0 0 1.28 1.28c.266.138.619.233 1.234.284C7.479 19 8.284 19 9.44 19h3.12c1.156 0 1.961 0 2.588-.053.615-.05.968-.146 1.235-.285a2.999 2.999 0 0 0 1.28-1.28c.138-.266.233-.619.284-1.234.052-.627.053-1.432.053-2.588V11zm-6 5a1 1 0 0 1 1-1h2a1 1 0 1 1 0 2h-2a1 1 0 0 1-1-1z" fill="#000"/></svg>
